svg/Filled/arrow-up-circle_filled.svg

<svg viewBox="0 0 24 24" xmlns="http://www.w3.org/2000/svg" width="24" height="24"><path fill-rule="evenodd" d="M12 1a11 11 0 1 1 0 22 11 11 0 0 1 0-22m.63 6a2 2 0 0 0-1.24 0l-.2.08q-.29.15-.49.32l-.53.51-3 3-.07.08a1 1 0 0 0 1.41 1.4l.08-.07 2.4-2.4v5.98l.01.1a1 1 0 0 0 2 0V9.9l2.44 2.42.08.07a1 1 0 0 0 1.4-1.4l-.07-.08-3-3q-.27-.29-.53-.5a2 2 0 0 0-.48-.33z" clip-rule="evenodd"/></svg>

<svg viewBox="0 0 24 24" xmlns="http://www.w3.org/2000/svg" width="24" height="24"><path fill-rule="evenodd" d="M12 1a11 11 0 1 1 0 22 11 11 0 0 1 0-22M12.63 7A2 2 0 0 0 11.39 7L11.19 7.08Q10.9 7.23 10.7 7.4L7.1 10.99A1 1 0 0 0 8.51 12.39L10.99 9.92L11 16A1 1 0 0 0 13 16L13 9.9L15.52 12.39A1 1 0 0 0 16.92 10.99L13.85 7.91Q13.58 7.62 13.32 7.41A2 2 0 0 0 12.84 7.08Z" clip-rule="evenodd"/></svg>
